X:1
T: Was there e'er such a lassie as I?
C:
R:Jig
Q:180
K:G
M:6/8
L:1/16
D2|GAB2B2 B2A2G2|B2d2d2 d4B2|c2e2A2 B2d2G2|c2E2F2 G4D2|
GAB2B2 B2A2G2|B2d2d2 d4B2|c2e2A2 B2d2G2|c2E2F2 G4|
|:Bc|d2B2B2 d2B2B2|G2E2E2 E4FG|A2F2F2 d2A2A2|F2D2D2 D4Bc|
d2e2d2 d2g2d2|B2G2G2 G4cd|e2f2e2 e2a2g2|f2d2d2 d4Bc|
d2B2B2 d2B2B2|G2E2E2 E4FG|A2F2F2 d2A2A2|F2D2D2 D4B2|
c2e2c2 B2d2B2|A2B2G2 F2E2D2|cde2A2 Bcd2G2|c2E2F2 G4:|
